www/assets/icons/30fps_select.svg

<svg xmlns="http://www.w3.org/2000/svg" width="24" height="24" viewBox="0 0 24 24" fill='currentColor'><path d="M4 3v2h5v2H5v2h4v2H4v2h5c1.1 0 2-.9 2-2V9.5c0-.83-.17-1.5-1-1.5.83 0 1-.67 1-1.5V5c0-1.1-.9-2-2-2zm14 0c1.1 0 2 .9 2 2v6c0 1.1-.9 2-2 2h-3c-1.1 0-2-.9-2-2V5c0-1.1.9-2 2-2zm0 2h-3v6h3zM5 21H3v-5h2zm4 0H7v-5h2zm4 0h-2v-5h2zm8 0h-6v-5h6z"/></svg>

<svg width="24" height="24" viewBox="0 0 24 24" xmlns="http://www.w3.org/2000/svg" fill='currentColor'><path d="M4 3V5H9V7H5V9H9V11H4V13H9C10.1 13 11 12.1 11 11V9.5C11 8.67 10.83 8 10 8C10.83 8 11 7.33 11 6.5V5C11 3.9 10.1 3 9 3H4ZM18 3C19.1 3 20 3.9 20 5V11C20 12.1 19.1 13 18 13H15C13.9 13 13 12.1 13 11V5C13 3.9 13.9 3 15 3H18ZM18 5H15V11H18V5ZM5 21H3V16H5V21ZM9 21H7V16H9V21ZM13 21H11V16H13V21ZM21 21H15V16H21V21Z"/></svg>
